;FLAVOR:RepRap
;TIME:166
;Filament used: 0.049783m
;Layer height: 0.1
;Generated with Cura_SteamEngine 2.5.0-twosilly
M190 S50
M104 S210
M109 S210
G28 ;Home
G1 Z15.0 F6000 ;Move the platform down 15mm
;Prime the extruder
G92 E0
G1 F200 E10
G92 E0
;LAYER_COUNT:27
;LAYER:0
M107
G0 F2700 X135.861 Y85.008 Z0.3
G0 X135.518 Y85.648
;TYPE:SKIRT
G1 F1200 X135.861 Y85.008 E0.03614
G1 X136.417 Y84.226 E0.08389
G1 X136.925 Y83.612 E0.12354
G1 X137.418 Y83.079 E0.15968
G1 X137.764 Y82.766 E0.1829
G1 X138.333 Y82.288 E0.21988
G1 X138.914 Y81.852 E0.25603
G1 X139.617 Y81.444 E0.29648
G1 X140.838 Y80.831 E0.36447
G1 X141.504 Y80.541 E0.40062
G1 X142.198 Y80.326 E0.43678
G1 X142.642 Y80.231 E0.45937
G1 X143.771 Y80.03 E0.51644
G1 X144.492 Y79.942 E0.55259
G1 X145.219 Y79.934 E0.58877
G1 X145.661 Y79.969 E0.61083
G1 X147.092 Y80.129 E0.68249
G1 X147.809 Y80.249 E0.71867
G1 X148.507 Y80.447 E0.75478
G1 X149.069 Y80.67 E0.78487
G1 X150.281 Y81.216 E0.85102
G1 X150.926 Y81.551 E0.88719
G1 X151.62 Y82.022 E0.92893
G1 X152.158 Y82.44 E0.96284
G1 X152.706 Y82.916 E0.99896
G1 X152.982 Y83.201 E1.0187
G1 X153.476 Y83.742 E1.05516
G1 X153.936 Y84.305 E1.09134
G1 X154.183 Y84.67 E1.11327
G1 X154.681 Y85.459 E1.15971
G1 X155.035 Y86.093 E1.19584
G1 X155.338 Y86.825 E1.23527
G1 X155.712 Y87.907 E1.29224
G1 X155.911 Y88.606 E1.32841
G1 X156.032 Y89.322 E1.36455
G1 X156.067 Y89.767 E1.38676
G1 X156.129 Y91.147 E1.45551
G1 X156.122 Y91.873 E1.49164
G1 X155.991 Y92.819 E1.53917
G1 X155.791 Y93.757 E1.58689
G1 X155.601 Y94.458 E1.62304
G1 X155.237 Y95.336 E1.67034
G1 X154.669 Y96.47 E1.73346
G1 X154.309 Y97.101 E1.76961
G1 X153.794 Y97.793 E1.81254
G1 X153.193 Y98.499 E1.85868
G1 X152.692 Y99.025 E1.89483
G1 X151.927 Y99.644 E1.9438
G1 X151.21 Y100.141 E1.98722
G1 X150.592 Y100.522 E2.02335
G1 X150.121 Y100.753 E2.04945
G1 X149.088 Y101.21 E2.10567
G1 X148.408 Y101.467 E2.14184
G1 X148.01 Y101.579 E2.16242
G1 X147.507 Y101.704 E2.18821
G1 X146.793 Y101.84 E2.22439
G1 X146.108 Y101.896 E2.25859
G1 X144.845 Y101.933 E2.32147
G1 X144.119 Y101.914 E2.35761
G1 X143.541 Y101.842 E2.3866
G1 X143.008 Y101.751 E2.41351
G1 X142.3 Y101.589 E2.44965
G1 X141.797 Y101.423 E2.47601
G1 X140.797 Y101.047 E2.52918
G1 X140.132 Y100.754 E2.56534
G1 X139.644 Y100.48 E2.59319
G1 X139.079 Y100.13 E2.62627
G1 X138.483 Y99.714 E2.66244
G1 X138.08 Y99.371 E2.68878
G1 X137.398 Y98.742 E2.73495
G1 X136.892 Y98.221 E2.77109
G1 X136.454 Y97.658 E2.80659
G1 X135.854 Y96.795 E2.8589
G1 X135.473 Y96.177 E2.89503
G1 X135.041 Y95.2 E2.94819
G1 X134.596 Y93.923 E3.01549
G1 X134.395 Y93.225 E3.05164
G1 X134.272 Y92.509 E3.08779
G1 X134.235 Y92.06 E3.11021
G1 X134.175 Y90.78 E3.17398
G1 X134.181 Y90.054 E3.21011
G1 X134.29 Y89.207 E3.25261
G1 X134.445 Y88.413 E3.29287
G1 X134.623 Y87.709 E3.32901
G1 X134.939 Y86.892 E3.3726
G1 X135.518 Y85.648 E3.44089
G0 F2700 X135.88 Y85.817
G1 F1200 X136.213 Y85.196 E3.47595
G1 X136.724 Y84.481 E3.51969
G1 X137.232 Y83.867 E3.55935
G1 X137.711 Y83.351 E3.59438
G1 X138.021 Y83.072 E3.61514
G1 X138.59 Y82.594 E3.65212
G1 X139.154 Y82.172 E3.68718
G1 X139.796 Y81.8 E3.7241
G1 X141.017 Y81.187 E3.79209
G1 X141.663 Y80.907 E3.82713
G1 X142.337 Y80.703 E3.86218
G1 X142.712 Y80.624 E3.88125
G1 X143.841 Y80.423 E3.93832
G1 X144.54 Y80.339 E3.97335
G1 X145.244 Y80.335 E4.00839
G1 X145.617 Y80.365 E4.02701
G1 X147.048 Y80.525 E4.09867
G1 X147.742 Y80.643 E4.1337
G1 X148.418 Y80.839 E4.16873
G1 X148.906 Y81.034 E4.19488
G1 X150.118 Y81.58 E4.26104
G1 X150.742 Y81.905 E4.29605
G1 X151.375 Y82.337 E4.33419
G1 X151.913 Y82.755 E4.36809
G1 X152.687 Y83.47 E4.42053
G1 X153.181 Y84.011 E4.45699
G1 X153.626 Y84.557 E4.49204
G1 X153.846 Y84.883 E4.51162
G1 X154.344 Y85.672 E4.55805
G1 X154.685 Y86.287 E4.59304
G1 X154.961 Y86.956 E4.62906
G1 X155.335 Y88.038 E4.68603
G1 X155.527 Y88.715 E4.72105
G1 X155.64 Y89.41 E4.75609
G1 X155.669 Y89.785 E4.77481
G1 X155.731 Y91.165 E4.84356
G1 X155.722 Y91.869 E4.87859
G1 X155.601 Y92.736 E4.92216
G1 X155.401 Y93.674 E4.96989
G1 X155.215 Y94.353 E5.00492
G1 X154.88 Y95.158 E5.04831
G1 X154.312 Y96.292 E5.11143
G1 X153.962 Y96.902 E5.14643
G1 X153.49 Y97.534 E5.18569
G1 X152.889 Y98.24 E5.23183
G1 X152.403 Y98.749 E5.26685
G1 X151.7 Y99.317 E5.31183
G1 X150.983 Y99.814 E5.35524
G1 X150.383 Y100.181 E5.39025
G1 X149.959 Y100.388 E5.41373
G1 X148.926 Y100.845 E5.46994
G1 X148.267 Y101.093 E5.50498
G1 X147.913 Y101.192 E5.52327
G1 X147.41 Y101.317 E5.54907
G1 X146.719 Y101.448 E5.58407
G1 X146.097 Y101.497 E5.61512
G1 X144.834 Y101.534 E5.678
G1 X144.13 Y101.515 E5.71305
G1 X143.609 Y101.449 E5.73918
G1 X143.076 Y101.358 E5.76609
G1 X142.389 Y101.2 E5.80117
G1 X141.937 Y101.049 E5.82489
G1 X140.937 Y100.673 E5.87805
G1 X140.293 Y100.389 E5.91308
G1 X139.854 Y100.141 E5.93817
G1 X139.289 Y99.791 E5.97125
G1 X138.713 Y99.387 E6.00626
G1 X138.351 Y99.078 E6.02995
G1 X137.669 Y98.449 E6.07612
G1 X137.179 Y97.943 E6.11117
G1 X136.781 Y97.43 E6.14348
G1 X136.181 Y96.567 E6.19579
G1 X135.813 Y95.967 E6.23082
G1 X135.417 Y95.068 E6.27971
G1 X134.972 Y93.791 E6.34701
G1 X134.779 Y93.114 E6.38204
G1 X134.663 Y92.42 E6.41705
G1 X134.634 Y92.041 E6.43597
G1 X134.574 Y90.761 E6.49974
G1 X134.581 Y90.057 E6.53478
G1 X134.682 Y89.283 E6.57362
G1 X134.837 Y88.489 E6.61388
G1 X135.011 Y87.807 E6.64891
G1 X135.301 Y87.061 E6.68874
G1 X135.88 Y85.817 E6.75703
G1 F3600 E0.25703
G0 F2700 X141.403 Y87.486
G0 X141.48 Y87.509
G0 X146.836 Y89.128
G0 X146.912 Y89.151
G0 X146.975 Y89.171
G0 X148.244 Y88.696
G0 X148.572 Y91.071
;TYPE:WALL-INNER
G1 F3600 E6.75703
G1 F1200 X148.576 Y90.932 E6.76395
G1 X148.579 Y91.071
G1 X148.568 Y91.22 E6.77138
G1 X148.572 Y91.071
G0 F2700 X148.979 Y91.081
G1 F1200 X148.951 Y91.447 E6.78965
G1 X148.901 Y91.74 E6.80444
G1 X148.777 Y92.205 E6.82839
G1 X148.669 Y92.49 E6.84356
G1 X148.523 Y92.793 E6.8603
G1 X148.51 Y92.82 E6.86179
G1 X148.341 Y93.098 E6.87798
G1 X148.249 Y93.235 E6.88619
G1 X148.108 Y93.42 E6.89777
G1 X148.112 Y93.232
G1 X148.116 Y93.092
G1 X148.124 Y92.811 E6.90603
G1 X148.124 Y92.782 E6.90745
G1 X148.221 Y89.323 E7.07965
G1 X148.222 Y89.254 E7.08309
G1 X148.23 Y88.971 E7.09718
G1 X148.239 Y88.677 E7.11181
G1 X148.438 Y88.978 E7.11223
G1 X148.591 Y89.265 E7.12469
G1 X148.617 Y89.329 E7.128
G1 X148.758 Y89.666 E7.14618
G1 X148.852 Y89.968 E7.16192
G1 X148.926 Y90.308 E7.17924
G1 X148.969 Y90.682 E7.19797
G1 X148.979 Y91.081 E7.21784
G1 F3600 E0.71784
G0 F2700 X148.88 Y91.079
G0 X148.244 Y88.696
G0 X147.515 Y87.93
G0 X147.401 Y87.891
G0 X147.435 Y87.934
G1 F3600 E7.21784
G1 F1200 X147.152 Y87.926 E7.23193
G1 X146.852 Y87.918 E7.24686
G1 X143.615 Y87.827 E7.40801
G1 X143.275 Y87.818 E7.42494
G1 X142.935 Y87.808 E7.44187
G1 X143.282 Y87.588 E7.44665
G1 X143.588 Y87.438 E7.46012
G1 X143.625 Y87.419 E7.46219
G1 X143.96 Y87.292 E7.48002
G1 X144.365 Y87.187 E7.50084
G1 X144.695 Y87.131 E7.5175
G1 X145.054 Y87.105 E7.53541
G1 X145.356 Y87.113 E7.55044
G1 X145.784 Y87.157 E7.57186
G1 X146.146 Y87.238 E7.59032
G1 X146.474 Y87.338 E7.60738
G1 X146.791 Y87.473 E7.62453
G1 X146.893 Y87.528 E7.6303
G1 X147.158 Y87.669 E7.64265
G1 X147.437 Y87.856 E7.64602
G1 X147.533 Y87.936 E7.65163
G1 X147.435 Y87.934
G1 F3600 E1.15163
G0 F2700 X147.401 Y87.891
G0 X147.296 Y87.911
G0 X146.975 Y89.171
G0 X146.873 Y92.86
G0 X147.125 Y94.136
G0 X147.12 Y94.174
G0 X147.148 Y94.118
G1 F3600 E7.65163
G1 F1200 X147.285 Y94.122 E7.65845
G1 X147.144 Y94.217 E7.66055
G1 X146.857 Y94.378 E7.67692
G1 X146.593 Y94.495 E7.69129
G1 X146.52 Y94.527 E7.69526
G1 X146.219 Y94.626 E7.71103
G1 X145.803 Y94.722 E7.73227
G1 X145.417 Y94.768 E7.75162
G1 X145.081 Y94.778 E7.76835
G1 X144.748 Y94.755 E7.78496
G1 X144.352 Y94.697 E7.80488
G1 X144.019 Y94.61 E7.82201
G1 X143.697 Y94.495 E7.83902
G1 X143.522 Y94.413 E7.84864
G1 X143.375 Y94.344 E7.85672
G1 X143.063 Y94.162 E7.8747
G1 X142.837 Y93.998 E7.88859
G1 X143.067 Y94.004
G1 X143.383 Y94.013 E7.89462
G1 X143.545 Y94.017 E7.90201
G1 X146.577 Y94.102 E8.05296
G1 X146.865 Y94.11 E8.06262
G1 X147.148 Y94.118 E8.06316
G1 F3600 E1.56316
G0 F2700 X147.12 Y94.174
G0 X142.855 Y94.004
G0 X141.919 Y92.961
G0 X141.888 Y92.829
G0 X141.928 Y92.857
G1 F3600 E8.06316
G1 F1200 X141.924 Y92.98 E8.06928
G1 X141.846 Y92.854 E8.07087
G1 X141.676 Y92.504 E8.09023
G1 X141.554 Y92.182 E8.10737
G1 X141.549 Y92.165 E8.10825
G1 X141.453 Y91.858 E8.12426
G1 X141.382 Y91.532 E8.14086
G1 X141.339 Y91.175 E8.15876
G1 X141.328 Y90.825 E8.17618
G1 X141.354 Y90.457 E8.19454
G1 X141.411 Y90.105 E8.21229
G1 X141.505 Y89.752 E8.23047
G1 X141.625 Y89.432 E8.24748
G1 X141.635 Y89.405 E8.24891
G1 X141.791 Y89.085 E8.26663
G1 X141.988 Y88.763 E8.28541
G1 X142.043 Y88.692 E8.28988
G1 X142.042 Y88.764
G1 X142.033 Y89.091
G1 X142.024 Y89.414 E8.30328
G1 X142.024 Y89.442 E8.30465
G1 X141.947 Y92.176 E8.44077
G1 X141.947 Y92.193 E8.44161
G1 X141.938 Y92.512 E8.45238
G1 X141.928 Y92.857 E8.45382
G0 F2700 X141.888 Y92.829
G0 X141.899 Y92.884
G0 X141.928 Y93.672
;TYPE:WALL-OUTER
G1 F1200 X141.706 Y93.382 E8.47199
G1 X141.497 Y93.046 E8.49169
G1 X141.312 Y92.666 E8.51272
G1 X141.177 Y92.311 E8.53162
G1 X141.067 Y91.956 E8.55012
G1 X140.99 Y91.602 E8.56815
G1 X140.941 Y91.202 E8.5882
G1 X140.93 Y90.82 E8.60722
G1 X140.958 Y90.409 E8.62772
G1 X141.021 Y90.021 E8.64728
G1 X141.125 Y89.629 E8.66746
G1 X141.267 Y89.251 E8.68756
G1 X141.444 Y88.888 E8.70766
G1 X141.658 Y88.538 E8.72807
G1 X141.936 Y88.182 E8.75055
G1 X142.153 Y87.943 E8.76662
G1 X142.194 Y87.906 E8.76936
G1 X142.204 Y87.897 E8.77003
G1 X142.448 Y87.677 E8.78638
G1 X142.755 Y87.446 E8.8055
G1 X143.086 Y87.241 E8.82488
G1 X143.469 Y87.053 E8.84611
G1 X143.841 Y86.912 E8.86591
G1 X144.285 Y86.796 E8.88875
G1 X144.645 Y86.736 E8.90691
G1 X145.045 Y86.707 E8.92687
G1 X145.382 Y86.715 E8.94364
G1 X145.85 Y86.764 E8.96706
G1 X146.238 Y86.85 E8.98684
G1 X146.609 Y86.964 E9.00615
G1 X146.97 Y87.117 E9.02567
G1 X147.361 Y87.326 E9.04773
G1 X147.678 Y87.538 E9.06671
G1 X147.992 Y87.801 E9.08709
G1 X148.3 Y88.117 E9.10905
G1 X148.544 Y88.417 E9.1283
G1 X148.78 Y88.774 E9.14959
G1 X148.95 Y89.094 E9.16763
G1 X149.133 Y89.533 E9.1913
G1 X149.237 Y89.867 E9.2087
G1 X149.318 Y90.24 E9.2277
G1 X149.367 Y90.659 E9.24869
G1 X149.377 Y91.092 E9.27025
G1 X149.347 Y91.493 E9.29026
G1 X149.289 Y91.83 E9.30728
G1 X149.158 Y92.323 E9.33266
G1 X149.036 Y92.645 E9.3498
G1 X148.858 Y93.014 E9.37019
G1 X148.672 Y93.319 E9.38797
G1 X148.573 Y93.467 E9.39683
G1 X148.385 Y93.713 E9.41224
G1 X148.17 Y93.944 E9.42794
G1 X148.162 Y93.936
G1 X147.717 Y94.311 E9.4569
G1 X147.349 Y94.558 E9.47896
G1 X147.036 Y94.734 E9.49683
G1 X146.665 Y94.898 E9.51701
G1 X146.321 Y95.011 E9.53503
G1 X145.876 Y95.114 E9.55776
G1 X145.442 Y95.166 E9.57952
G1 X145.075 Y95.177 E9.59779
G1 X144.702 Y95.151 E9.6164
G1 X144.277 Y95.088 E9.63778
G1 X143.897 Y94.989 E9.65732
G1 X143.55 Y94.865 E9.67566
G1 X143.188 Y94.695 E9.69556
G1 X142.85 Y94.498 E9.71503
G1 X142.527 Y94.264 E9.73488
G1 X142.229 Y94 E9.75469
G1 X142.058 Y93.816 E9.76719
G1 X141.947 Y93.697 E9.77529
G1 X141.928 Y93.672 E9.77685
G0 F2700 X141.807 Y93.514
G0 X142.306 Y93.585
G1 F1200 X147.503 Y93.73 E10.03558
G1 X147.701 Y93.735 E10.04544
G1 X147.706 Y93.537 E10.05181
G1 X147.85 Y88.343 E10.31039
G1 X142.468 Y88.193 E10.57834
G1 X142.455 Y88.193 E10.57897
G1 X142.306 Y93.554 E10.84587
G1 X142.306 Y93.585 E10.84741
G0 F2700 X142.505 Y93.59
G0 X142.472 Y93.785
;TYPE:SKIN
G1 F1200 X142.656 Y93.969 E10.85387
G0 F2700 X141.991 Y93.304
G1 F1200 X142.106 Y93.137 E10.85878
G0 F2700 X141.899 Y92.884
G0 X141.757 Y91.945
G0 X141.704 Y91.891
G1 F1200 X141.667 Y91.572 E10.86407
G1 X141.652 Y91.276 E10.87168
G1 X141.651 Y90.994 E10.88037
G1 X141.662 Y90.724 E10.88923
G1 X141.681 Y90.461 E10.89762
G1 X141.706 Y90.205 E10.90497
G1 X141.739 Y89.956 E10.91079
G1 X141.778 Y89.714 E10.91461
G0 F2700 X141.74 Y89.675
G0 X142.011 Y88.786
G0 X142.162 Y88.409
G1 F1200 X142.232 Y88.198 E10.91863
G0 F2700 X142.546 Y87.949
G1 F1200 X142.709 Y87.831 E10.92263
G0 F2700 X143.031 Y87.782
G0 X143.834 Y87.548
G0 X143.879 Y87.594
G1 F1200 X144.127 Y87.56 E10.92731
G1 X144.384 Y87.535 E10.93462
G1 X144.643 Y87.513 E10.94415
G1 X144.908 Y87.497 E10.95554
G1 X145.184 Y87.491 E10.96825
G1 X145.471 Y87.497 E10.98146
G1 X145.77 Y87.515 E10.99446
G1 X146.083 Y87.546 E11.00635
G1 X146.42 Y87.602 E11.01568
G0 F2700 X146.53 Y87.711
G0 X147.44 Y87.902
G0 X147.689 Y88.027
G1 F1200 X147.808 Y88.145 E11.01984
G0 F2700 X148.043 Y88.38
G1 F1200 X148.172 Y88.509 E11.02437
G0 F2700 X148.266 Y88.773
G0 X148.406 Y89.588
G0 X148.495 Y89.677
G1 F1200 X148.545 Y90.008 E11.03263
G1 X148.571 Y90.315 E11.04401
G1 X148.555 Y90.581 E11.05634
G1 X148.41 Y90.717 E11.0635
G0 F2700 X148.628 Y91.498
G1 F1200 X148.515 Y91.666 E11.07259
G1 X148.481 Y91.914 E11.08293
G1 X148.443 Y92.157 E11.09124
G1 X148.398 Y92.394 E11.09717
G1 X148.349 Y92.626 E11.1003
G0 F2700 X148.373 Y92.65
G0 X148.14 Y93.326
G0 X147.985 Y93.669
G1 F1200 X147.904 Y93.869 E11.1038
G1 X147.723 Y93.97 E11.10572
G1 X147.516 Y94.045 E11.11052
G0 F2700 X147.189 Y94.149
G0 X146.418 Y94.354
G0 X146.386 Y94.322
G1 F1200 X146.136 Y94.353 E11.1141
G1 X145.878 Y94.377 E11.12015
G1 X145.619 Y94.399 E11.12835
G1 X145.348 Y94.41 E11.1383
G1 X145.071 Y94.414 E11.14928
G1 X144.783 Y94.408 E11.16082
G1 X144.482 Y94.387 E11.17192
G1 X144.166 Y94.353 E11.18175
G1 X143.818 Y94.287 E11.18855
G0 F2700 X143.848 Y94.125
G0 X144.824 Y94.45
;TIME_ELAPSED:17.313515
;LAYER:1
M140 S50
G1 F3600 E4.68855
M106 S255
G0 F4050 X144.824 Y94.45 Z0.4
;TYPE:WALL-INNER
G1 F3600 E11.18855
G1 F1500 X145.205 Y94.461 E11.19488
G1 X144.824 Y94.456
G1 X144.753 Y94.448 E11.19606
G1 X144.824 Y94.45
G0 F4050 X144.803 Y94.855
G1 F1500 X144.453 Y94.815 E11.2019
G1 X144.1 Y94.741 E11.20789
G1 X143.755 Y94.634 E11.21388
G1 X143.396 Y94.484 E11.22033
G1 X143.24 Y94.399 E11.22328
G1 X143.049 Y94.296 E11.22688
G1 X142.868 Y94.177 E11.23047
G1 X142.622 Y93.99 E11.2356
G1 X142.872 Y93.996
G1 X143.056 Y94.001 E11.23628
G1 X143.272 Y94.007 E11.23941
G1 X146.646 Y94.101 E11.2954
G1 X146.942 Y94.109 E11.30031
G1 X147.154 Y94.115 E11.30383
G1 X147.293 Y94.119 E11.30613
G1 X147.15 Y94.22
G1 X146.934 Y94.357 E11.30802
G1 X146.669 Y94.491 E11.31205
G1 X146.605 Y94.524 E11.31324
G1 X146.259 Y94.66 E11.31941
G1 X145.918 Y94.758 E11.32529
G1 X145.484 Y94.836 E11.33261
G1 X145.157 Y94.865 E11.33805
G1 X144.803 Y94.855 E11.34393
G1 F3600 E4.84393
G0 F4050 X144.81 Y94.756
G0 X142.64 Y93.996
G0 X141.912 Y93.231
G0 X141.827 Y92.941
G0 X141.926 Y92.942
G1 F3600 E11.34393
G1 F1500 X141.917 Y93.25 E11.34904
G1 X141.711 Y92.935 E11.35132
G1 X141.548 Y92.621 E11.35719
G1 X141.533 Y92.593 E11.35772
G1 X141.394 Y92.252 E11.36383
G1 X141.301 Y91.931 E11.36937
G1 X141.231 Y91.566 E11.37554
G1 X141.199 Y91.218 E11.38133
G1 X141.201 Y90.844 E11.38754
G1 X141.239 Y90.465 E11.39386
G1 X141.291 Y90.192 E11.39847
G1 X141.42 Y89.742 E11.40623
G1 X141.553 Y89.412 E11.41213
G1 X141.635 Y89.259 E11.41501
G1 X141.734 Y89.071 E11.41854
G1 X141.933 Y88.765 E11.42459
G1 X142.045 Y88.627 E11.42754
G1 X142.042 Y88.767
G1 X142.033 Y89.078 E11.42856
G1 X142.028 Y89.29 E11.43164
G1 X141.935 Y92.589 E11.48639
G1 X141.926 Y92.942 E11.48987
G1 F3600 E4.98987
G0 F4050 X141.827 Y92.941
G0 X142.039 Y88.645
G0 X142.957 Y87.803
G0 X143.255 Y87.717
G0 X143.254 Y87.816
G1 F3600 E11.48987
G1 F1500 X142.938 Y87.807 E11.49511
G1 X143.26 Y87.618 E11.49717
G1 X143.589 Y87.466 E11.50318
G1 X143.689 Y87.432 E11.50493
G1 X143.939 Y87.345 E11.50933
G1 X144.292 Y87.259 E11.51535
G1 X144.653 Y87.208 E11.5214
G1 X145.024 Y87.191 E11.52756
G1 X145.384 Y87.211 E11.53354
G1 X145.73 Y87.261 E11.53934
G1 X146.075 Y87.345 E11.54523
G1 X146.394 Y87.452 E11.55081
G1 X146.526 Y87.513 E11.55323
G1 X146.71 Y87.597 E11.55658
G1 X147.052 Y87.797 E11.56315
G1 X147.24 Y87.928 E11.56695
G1 X147.049 Y87.923
G1 X146.702 Y87.913 E11.56879
G1 X146.5 Y87.908 E11.5718
G1 X143.684 Y87.828 E11.61854
G1 X143.579 Y87.826 E11.61998
G1 X143.254 Y87.816 E11.62189
G1 F3600 E5.12189
G0 F4050 X143.255 Y87.717
G0 X147.221 Y87.922
G0 X148.237 Y88.955
G0 X148.275 Y89.086
G0 X148.228 Y89.057
G1 F3600 E11.62189
