;FLAVOR:RepRap
;TIME:375
;Filament used: 0.233897m
;Layer height: 0.2
;Generated with Cura_SteamEngine 2.5.0-twosilly
M190 S50
M104 S210
M109 S210
G28 ;Home
G1 Z15.0 F6000 ;Move the platform down 15mm
;Prime the extruder
G92 E0
G1 F200 E10
G92 E0
;LAYER_COUNT:15
;LAYER:0
M107
G0 F2700 X108.225 Y78.303 Z0.3
;TYPE:SKIRT
G1 F1200 X108.656 Y77.719 E0.03612
G1 X109.15 Y77.185 E0.07232
G1 X109.698 Y76.709 E0.10845
G1 X110.296 Y76.297 E0.14459
G1 X110.845 Y75.995 E0.17577
G1 X117.357 Y72.815 E0.53642
G1 X118.027 Y72.533 E0.57259
G1 X119.007 Y72.265 E0.62315
G1 X119.527 Y72.165 E0.64951
G1 X120.247 Y72.067 E0.68567
G1 X120.973 Y72.049 E0.72181
G1 X121.623 Y72.101 E0.75426
G1 X127.278 Y72.836 E1.03805
G1 X132.537 Y73.231 E1.3005
G1 X137.834 Y73.329 E1.56416
G1 X143.138 Y73.127 E1.8283
G1 X145.971 Y72.898 E1.96975
G1 X146.697 Y72.88 E2.00589
G1 X147.505 Y72.954 E2.04627
G1 X148.051 Y73.038 E2.07376
G1 X148.762 Y73.188 E2.10992
G1 X149.452 Y73.414 E2.14606
G1 X150.297 Y73.816 E2.19262
G1 X155.483 Y76.749 E2.48912
G1 X156.683 Y77.414 E2.5574
G1 X157.298 Y77.8 E2.59353
G1 X157.867 Y78.252 E2.6297
G1 X158.382 Y78.763 E2.6658
G1 X158.839 Y79.328 E2.70197
G1 X159.23 Y79.94 E2.73811
G1 X159.552 Y80.591 E2.77425
G1 X159.801 Y81.273 E2.81038
G1 X159.973 Y81.979 E2.84654
G1 X160.066 Y82.699 E2.88267
G1 X160.081 Y83.389 E2.91702
G1 X159.652 Y97.361 E3.61267
G1 X159.59 Y98.084 E3.64878
G1 X159.448 Y98.797 E3.68496
G1 X159.23 Y99.489 E3.72107
G1 X158.936 Y100.153 E3.75721
G1 X158.571 Y100.782 E3.7934
G1 X158.14 Y101.366 E3.82952
G1 X157.646 Y101.899 E3.86568
G1 X157.098 Y102.375 E3.90181
G1 X156.5 Y102.787 E3.93795
G1 X155.855 Y103.134 E3.9744
G1 X153.142 Y104.405 E4.12349
G1 X149.248 Y106.329 E4.33964
G1 X148.58 Y106.614 E4.37579
G1 X147.885 Y106.825 E4.41193
G1 X146.871 Y106.989 E4.46305
G1 X146.51 Y107.019 E4.48108
G1 X145.783 Y107.04 E4.51727
G1 X145.033 Y106.976 E4.55473
G1 X142.112 Y106.56 E4.70156
G1 X136.81 Y106.015 E4.96681
G1 X131.537 Y105.773 E5.2295
G1 X126.224 Y105.829 E5.49392
G1 X120.41 Y106.184 E5.78379
G1 X119.684 Y106.188 E5.81992
G1 X118.961 Y106.112 E5.8561
G1 X118.378 Y105.992 E5.88572
G1 X118.119 Y105.926 E5.89902
G1 X117.427 Y105.708 E5.93513
G1 X116.511 Y105.281 E5.98543
G1 X110.077 Y101.658 E6.35289
G1 X109.465 Y101.267 E6.38903
G1 X108.899 Y100.812 E6.42517
G1 X108.387 Y100.297 E6.46131
G1 X107.935 Y99.729 E6.49744
G1 X107.547 Y99.114 E6.53362
G1 X107.23 Y98.461 E6.56975
G1 X106.986 Y97.777 E6.60589
G1 X106.819 Y97.07 E6.64204
G1 X106.731 Y96.349 E6.67819
G1 X106.719 Y95.707 E6.71014
G1 X107.145 Y81.724 E7.40634
G1 X107.207 Y81 E7.4425
G1 X107.348 Y80.288 E7.47862
G1 X107.567 Y79.595 E7.51479
G1 X107.86 Y78.931 E7.55091
G1 X108.225 Y78.303 E7.58705
G0 F2700 X108.619 Y78.432
G1 F1200 X109.048 Y77.874 E7.62208
G1 X109.537 Y77.368 E7.6571
G1 X110.081 Y76.921 E7.69214
G1 X110.672 Y76.538 E7.72719
G1 X111.02 Y76.354 E7.74678
G1 X117.532 Y73.174 E8.10743
G1 X118.182 Y72.901 E8.14251
G1 X119.082 Y72.657 E8.18892
G1 X119.602 Y72.557 E8.21527
G1 X120.3 Y72.463 E8.25032
G1 X121.004 Y72.449 E8.28536
G1 X121.572 Y72.497 E8.31373
G1 X127.216 Y73.231 E8.59697
G1 X132.535 Y73.63 E8.86242
G1 X137.824 Y73.728 E9.12567
G1 X143.185 Y73.524 E9.39266
G1 X146.003 Y73.296 E9.53335
G1 X146.706 Y73.279 E9.56835
G1 X147.445 Y73.348 E9.60529
G1 X147.991 Y73.432 E9.63278
G1 X148.679 Y73.578 E9.66778
G1 X149.347 Y73.802 E9.70284
G1 X150.1 Y74.163 E9.7444
G1 X155.286 Y77.096 E10.0409
G1 X156.489 Y77.763 E10.10935
G1 X157.085 Y78.138 E10.1444
G1 X157.634 Y78.579 E10.17944
G1 X158.129 Y79.079 E10.21445
G1 X158.565 Y79.632 E10.2495
G1 X158.935 Y80.231 E10.28454
G1 X159.235 Y80.867 E10.31953
G1 X159.461 Y81.534 E10.35458
G1 X159.61 Y82.222 E10.38961
G1 X159.679 Y82.923 E10.42467
G1 X159.682 Y83.376 E10.44721
G1 X159.253 Y97.348 E11.14286
G1 X159.192 Y98.05 E11.17793
G1 X159.051 Y98.739 E11.21293
G1 X158.833 Y99.409 E11.24799
G1 X158.541 Y100.049 E11.283
G1 X158.178 Y100.652 E11.31803
G1 X157.748 Y101.21 E11.35308
G1 X157.259 Y101.716 E11.3881
G1 X156.715 Y102.163 E11.42314
G1 X156.124 Y102.546 E11.45819
G1 X155.686 Y102.773 E11.48274
G1 X152.936 Y104.061 E11.63386
G1 X149.071 Y105.971 E11.84841
G1 X148.423 Y106.247 E11.88346
G1 X147.748 Y106.447 E11.9185
G1 X146.837 Y106.592 E11.9644
G1 X146.476 Y106.622 E11.98243
G1 X145.773 Y106.64 E12.01743
G1 X145.089 Y106.581 E12.05159
G1 X142.159 Y106.164 E12.19888
G1 X136.833 Y105.616 E12.46533
G1 X131.551 Y105.374 E12.72846
G1 X126.196 Y105.431 E12.99497
G1 X120.386 Y105.785 E13.28465
G1 X119.682 Y105.788 E13.31968
G1 X118.982 Y105.711 E13.35473
G1 X118.477 Y105.605 E13.38041
G1 X118.218 Y105.539 E13.39371
G1 X117.547 Y105.327 E13.42873
G1 X116.707 Y104.933 E13.4749
G1 X110.273 Y101.31 E13.84237
G1 X109.68 Y100.931 E13.87739
G1 X109.134 Y100.486 E13.91244
G1 X108.642 Y99.983 E13.94746
G1 X108.21 Y99.427 E13.9825
G1 X107.844 Y98.825 E14.01756
G1 X107.549 Y98.186 E14.05258
G1 X107.328 Y97.518 E14.0876
G1 X107.184 Y96.829 E14.12263
G1 X107.119 Y96.128 E14.15766
G1 X107.118 Y95.719 E14.17802
G1 X107.544 Y81.736 E14.87421
G1 X107.605 Y81.035 E14.90923
G1 X107.746 Y80.345 E14.94428
G1 X107.963 Y79.676 E14.97928
G1 X108.256 Y79.035 E15.01435
G1 X108.619 Y78.432 E15.04938
G1 F3600 E8.54938
G0 F2700 X118.595 Y81.081
G0 X119.864 Y81.12
G0 X120.234 Y81.852
;TYPE:WALL-INNER
G1 F3600 E15.04938
G1 F1200 X120.236 Y81.792 E15.05237
G1 X120.513 Y81.861 E15.06122
G1 X120.575 Y81.865 E15.06431
G1 X120.81 Y81.883 E15.07604
G1 X120.959 Y81.869 E15.08349
G1 X121.108 Y81.855 E15.09094
G1 X121.243 Y81.818 E15.0979
G1 X121.242 Y81.859
G1 X121.238 Y82.009 E15.10352
G1 X121.209 Y82.901 E15.14794
G1 X120.402 Y82.876 E15.18812
G1 X120.203 Y82.871 E15.19802
G1 X120.209 Y82.672 E15.20442
G1 X120.233 Y81.914 E15.24216
G1 X120.234 Y81.852
G0 F2700 X120.191 Y83.228
G0 X126.567 Y83.437
G0 X126.207 Y95.183
G0 X119.819 Y95.358
G1 F1200 X120.826 Y95.389 E15.2923
G1 X120.798 Y96.284 E15.33686
G1 X120.794 Y96.432 E15.34423
G1 X120.792 Y96.473 E15.34627
G1 X120.658 Y96.427 E15.34663
G1 X120.512 Y96.405 E15.35216
G1 X120.368 Y96.382 E15.35942
G1 X120.131 Y96.383 E15.37121
G1 X120.072 Y96.383 E15.37415
G1 X119.786 Y96.436 E15.38862
G1 X119.787 Y96.375
G1 X119.788 Y96.316 E15.39156
G1 X119.819 Y95.358 E15.43926
G0 F2700 X119.415 Y95.501
G1 F1200 X119.217 Y95.495 E15.44912
G1 X114.116 Y95.339 E15.70309
G1 X113.918 Y95.333 E15.71295
G1 X113.924 Y95.135 E15.71932
G1 X114.305 Y82.731 E16.3369
G1 X114.311 Y82.533 E16.34676
G1 X114.509 Y82.539 E16.35313
G1 X119.611 Y82.696 E16.60716
G1 X119.809 Y82.702 E16.61702
G1 X119.813 Y82.504 E16.62337
G1 X119.814 Y82.503 E16.62344
G1 X119.848 Y81.385 E16.67911
G1 X119.85 Y81.31 E16.68284
G1 X119.854 Y81.189 E16.68887
G1 X119.857 Y81.102 E16.6932
G1 X119.954 Y81.193
G1 X120.147 Y81.32 E16.70081
G1 X120.215 Y81.35 E16.70411
G1 X120.355 Y81.411 E16.71171
G1 X120.576 Y81.466 E16.72304
G1 X120.806 Y81.483 E16.73452
G1 X121.035 Y81.461 E16.74597
G1 X121.256 Y81.4 E16.75738
G1 X121.313 Y81.373 E16.76052
G1 X121.461 Y81.304 E16.76864
G1 X121.662 Y81.163 E16.78086
G1 X121.658 Y81.31
G1 X121.653 Y81.474 E16.78728
G1 X121.613 Y82.758 E16.85121
G1 X126.913 Y82.921 E17.11509
G1 X127.111 Y82.927 E17.12495
G1 X127.105 Y83.125 E17.13132
G1 X126.717 Y95.726 E17.75871
G1 X121.22 Y95.558 E18.0324
G1 X121.18 Y96.842 E18.09633
G1 X121.176 Y97.005 E18.10444
G1 X121.171 Y97.153 E18.11181
G1 X120.981 Y96.998 E18.11386
G1 X120.837 Y96.922 E18.1202
G1 X120.777 Y96.89 E18.12358
G1 X120.562 Y96.816 E18.13489
G1 X120.338 Y96.781 E18.14618
G1 X120.109 Y96.782 E18.15757
G1 X119.881 Y96.824 E18.16911
G1 X119.738 Y96.877 E18.1767
G1 X119.666 Y96.903 E18.18051
G1 X119.469 Y97.017 E18.19184
G1 X119.366 Y97.102 E18.19848
G1 X119.368 Y97.015
G1 X119.372 Y96.894
G1 X119.374 Y96.817 E18.2019
G1 X119.409 Y95.7 E18.25752
G1 X119.415 Y95.501 E18.26743
G0 F2700 X119.487 Y95.433
G0 X114.418 Y94.863
G0 X114.49 Y94.795
G1 F1200 X125.982 Y95.148 E18.8396
G1 X126.18 Y95.154 E18.84946
G1 X126.186 Y94.956 E18.85583
G1 X126.538 Y83.464 E19.42801
G1 X114.849 Y83.106 E20.00999
G1 X114.49 Y94.795 E20.59197
G0 F2700 X114.9 Y94.409
;TYPE:WALL-OUTER
G1 F1200 X125.596 Y94.738 E21.12451
G1 X125.794 Y94.744 E21.13437
G1 X125.8 Y94.546 E21.14074
G1 X126.128 Y83.85 E21.67329
G1 X115.235 Y83.516 E22.21564
G1 X114.9 Y94.409 E22.75799
G0 F2700 X115.099 Y94.415
G0 X115.083 Y94.912
G0 X119.444 Y95.474
G0 X119.502 Y95.902
G0 X119.005 Y95.887
G1 F1200 X113.508 Y95.719 E23.03168
G1 X113.925 Y82.123 E23.70861
G1 X119.423 Y82.292 E23.98235
G1 X119.482 Y80.332 E24.07993
G1 X119.487 Y80.168 E24.0881
G1 X119.489 Y80.111 E24.09093
G1 X119.503 Y79.985 E24.09724
G1 X119.516 Y79.877 E24.10266
G1 X119.545 Y79.773 E24.10803
G1 X119.572 Y79.679 E24.1129
G1 X119.625 Y79.568 E24.11902
G1 X119.668 Y79.478 E24.12398
G1 X119.736 Y79.381 E24.12988
G1 X119.79 Y79.303 E24.1346
G1 X119.877 Y79.214 E24.14079
G1 X119.938 Y79.152 E24.14512
G1 X120.044 Y79.074 E24.15167
G1 X120.113 Y79.024 E24.15591
G1 X120.234 Y78.964 E24.16263
G1 X120.305 Y78.928 E24.16659
G1 X120.439 Y78.887 E24.17357
G1 X120.512 Y78.864 E24.17738
G1 X120.65 Y78.845 E24.18431
G1 X120.721 Y78.835 E24.18788
G1 X120.871 Y78.84 E24.19535
G1 X120.939 Y78.843 E24.19873
G1 X121.085 Y78.871 E24.20613
G1 X121.147 Y78.884 E24.20928
G1 X121.293 Y78.939 E24.21705
G1 X121.35 Y78.961 E24.22009
G1 X121.486 Y79.039 E24.22789
G1 X121.536 Y79.068 E24.23077
G1 X121.661 Y79.172 E24.23886
G1 X121.702 Y79.206 E24.24151
G1 X121.811 Y79.331 E24.24976
G1 X121.84 Y79.365 E24.25199
G1 X121.847 Y79.377 E24.25268
G1 X121.931 Y79.515 E24.26072
G1 X121.953 Y79.551 E24.26282
G1 X121.959 Y79.566 E24.26362
G1 X122.018 Y79.714 E24.27155
G1 X122.033 Y79.75 E24.27349
G1 X122.037 Y79.768 E24.27441
G1 X122.072 Y79.925 E24.28242
G1 X122.079 Y79.956 E24.284
G1 X122.08 Y79.985 E24.28544
G1 X122.088 Y80.145 E24.29341
G1 X122.091 Y80.19 E24.29566
G1 X122.087 Y80.332 E24.30273
G1 X122.083 Y80.464 E24.3093
G1 X122.029 Y82.173 E24.39439
G1 X122.023 Y82.372 E24.4043
G1 X122.221 Y82.378 E24.41416
G1 X127.323 Y82.535 E24.66818
G1 X127.521 Y82.541 E24.67804
G1 X127.515 Y82.739 E24.68441
G1 X127.103 Y96.136 E25.35143
G1 X121.606 Y95.968 E25.62512
G1 X121.547 Y97.876 E25.72012
G1 X121.544 Y98.005 E25.72654
G1 X121.539 Y98.149 E25.73371
G1 X121.534 Y98.193 E25.73592
G1 X121.516 Y98.354 E25.74398
G1 X121.512 Y98.383 E25.74544
G1 X121.505 Y98.409 E25.74678
G1 X121.46 Y98.566 E25.7549
G1 X121.455 Y98.584 E25.75583
G1 X121.439 Y98.619 E25.75775
G1 X121.369 Y98.765 E25.76581
G1 X121.362 Y98.78 E25.76663
G1 X121.338 Y98.814 E25.7687
G1 X121.247 Y98.944 E25.7766
G1 X121.241 Y98.953 E25.77714
G1 X121.208 Y98.987 E25.77949
G1 X121.087 Y99.11 E25.78808
G1 X121.05 Y99.137 E25.79036
G1 X120.915 Y99.236 E25.79869
G1 X120.867 Y99.26 E25.80136
G1 X120.723 Y99.332 E25.80937
G1 X120.667 Y99.349 E25.81229
G1 X120.517 Y99.395 E25.82009
G1 X120.458 Y99.403 E25.82306
G1 X120.307 Y99.425 E25.83065
G1 X120.237 Y99.423 E25.83414
G1 X120.089 Y99.417 E25.84151
G1 X120.023 Y99.404 E25.84486
G1 X119.881 Y99.376 E25.85206
G1 X119.81 Y99.35 E25.85582
G1 X119.678 Y99.299 E25.86286
G1 X119.612 Y99.261 E25.86665
G1 X119.496 Y99.194 E25.87332
G1 X119.429 Y99.138 E25.87767
G1 X119.327 Y99.053 E25.88427
G1 X119.272 Y98.989 E25.88847
G1 X119.188 Y98.892 E25.89486
G1 X119.14 Y98.814 E25.89942
G1 X119.076 Y98.709 E25.90554
G1 X119.04 Y98.618 E25.91041
G1 X118.995 Y98.507 E25.91637
G1 X118.974 Y98.413 E25.92116
G1 X118.949 Y98.303 E25.92677
G1 X118.944 Y98.187 E25.93255
G1 X118.938 Y98.069 E25.93843
G1 X118.939 Y98.006 E25.94157
G1 X118.944 Y97.848 E25.94943
G1 X119.005 Y95.887 E26.04707
G0 F2700 X118.806 Y95.881
G0 X118.822 Y95.384
G0 X119.444 Y95.474
G0 X119.381 Y96.961
G0 X119.697 Y97.345
G1 F1200 X119.573 Y97.448 E26.05509
G1 X119.468 Y97.57 E26.0631
G1 X119.385 Y97.708 E26.07112
G1 X119.326 Y97.858 E26.07914
G1 X119.295 Y98.015 E26.08607
G1 X119.292 Y98.085 E26.08844
G1 X119.288 Y98.171 E26.09153
G1 X119.299 Y98.252 E26.09393
G1 X119.312 Y98.336 E26.09678
G1 X119.332 Y98.401 E26.09823
G1 X119.36 Y98.489 E26.10172
G1 X119.389 Y98.545 E26.10337
G1 X119.435 Y98.633 E26.10625
G1 X119.468 Y98.677 E26.10713
G1 X119.533 Y98.762 E26.11104
G1 X119.568 Y98.795 E26.11165
G1 X119.65 Y98.872 E26.11578
G1 X119.69 Y98.898 E26.11657
G1 X119.784 Y98.96 E26.12072
G1 X119.819 Y98.975 E26.1212
G1 X119.932 Y99.025 E26.12516
G1 X119.964 Y99.032 E26.12538
G1 X120.089 Y99.063 E26.13023
G1 X120.115 Y99.064 E26.13025
G1 X120.249 Y99.075 E26.13474
G1 X120.273 Y99.073
G1 X120.408 Y99.06 E26.13986
G1 X120.425 Y99.056
G1 X120.565 Y99.018 E26.14534
G1 X120.711 Y98.949 E26.15095
G1 X120.843 Y98.857 E26.15654
G1 X120.959 Y98.744 E26.16225
G1 X121.052 Y98.614 E26.16782
G1 X121.123 Y98.47 E26.17299
G1 X121.169 Y98.314 E26.17754
G1 X121.187 Y98.155 E26.18349
G1 X121.179 Y97.994 E26.18995
G1 X121.15 Y97.869 E26.19606
G1 X121.142 Y97.837 E26.1977
G1 X121.082 Y97.688 E26.2057
G1 X120.995 Y97.552 E26.21373
G1 X120.887 Y97.433 E26.22173
G1 X120.761 Y97.332 E26.22977
G1 X120.618 Y97.256 E26.23783
G1 X120.466 Y97.204 E26.24582
G1 X120.308 Y97.179 E26.25378
G1 X120.146 Y97.18 E26.26184
G1 X119.987 Y97.209 E26.26989
G1 X119.836 Y97.265 E26.2779
G1 X119.697 Y97.345 E26.28588
G0 F2700 X119.573 Y97.448
G0 X119.548 Y97.477
G0 X119.409 Y97.013
G0 X119.585 Y94.991
G0 X114.461 Y94.822
G0 X114.822 Y83.077
G0 X120.618 Y83.241
G0 X120.765 Y81.58
G0 X120.801 Y81.084
G1 F1200 X120.962 Y81.068 E26.29393
G1 X121.118 Y81.025 E26.30199
G1 X121.263 Y80.957 E26.30996
G1 X121.396 Y80.866 E26.31798
G1 X121.51 Y80.753 E26.32596
G1 X121.605 Y80.623 E26.33398
G1 X121.677 Y80.477 E26.34208
G1 X121.685 Y80.45 E26.34348
G1 X121.721 Y80.322 E26.34982
G1 X121.74 Y80.163 E26.35644
G1 X121.731 Y80.002 E26.36233
G1 X121.695 Y79.845 E26.36766
G1 X121.633 Y79.697 E26.37332
G1 X121.547 Y79.561 E26.37856
G1 X121.439 Y79.44 E26.3844
G1 X121.313 Y79.341 E26.39007
G1 X121.182 Y79.27 E26.39522
G1 X121.171 Y79.264 E26.39535
G1 X121.033 Y79.217 E26.40031
G1 X121.019 Y79.212
G1 X120.884 Y79.191 E26.4049
G1 X120.859 Y79.187
G1 X120.726 Y79.188 E26.40926
G1 X120.699 Y79.189 E26.40972
G1 X120.574 Y79.211 E26.41376
G1 X120.541 Y79.217 E26.41469
G1 X120.426 Y79.259 E26.41893
G1 X120.389 Y79.273 E26.42012
G1 X120.29 Y79.33 E26.42402
G1 X120.249 Y79.354 E26.42457
G1 X120.163 Y79.425 E26.42803
G1 X120.125 Y79.456 E26.42962
G1 X120.058 Y79.534 E26.43268
G1 X120.02 Y79.578 E26.43489
G1 X119.972 Y79.66 E26.43809
G1 X119.937 Y79.717 E26.43958
G1 X119.903 Y79.807 E26.44238
G1 X119.879 Y79.867 E26.44386
G1 X119.864 Y79.945 E26.446
G1 X119.848 Y80.024 E26.44811
G1 X119.844 Y80.127 E26.45143
G1 X119.841 Y80.18 E26.45279
G1 X119.864 Y80.345 E26.46043
G1 X119.914 Y80.499 E26.46849
G1 X119.988 Y80.642 E26.4765
G1 X120.084 Y80.769 E26.48442
G1 X120.202 Y80.88 E26.49249
G1 X120.337 Y80.969 E26.50053
G1 X120.484 Y81.033 E26.50851
G1 X120.64 Y81.072 E26.51652
G1 X120.801 Y81.084 E26.52455
G0 F2700 X120.962 Y81.068
G0 X120.999 Y81.058
G0 X121.13 Y81.538
G0 X121.036 Y82.062
G0 X121.018 Y82.083
G1 F1200 X120.721 Y82.351 E26.5491
;TYPE:SKIN
G1 X120.337 Y81.967
G0 F2700 X120.39 Y82.584
G1 F1200 X120.505 Y82.699 E26.55719
G0 F2700 X126.567 Y83.437
G0 X126.207 Y95.183
G0 X120.621 Y95.582
G0 X120.508 Y95.68
G1 F1200 X120.234 Y95.97 E26.58332
G0 F2700 X120.923 Y96.72
;TYPE:SKIN
G1 F1200 X120.98 Y96.777 E26.58532
G0 F2700 X121.302 Y97.381
G1 F1200 X121.311 Y97.671 E26.58908
G0 F2700 X121.13 Y97.062
G0 X120.571 Y96.778
G0 X119.742 Y96.665
G1 F1200 X119.71 Y96.633 E26.5902
G0 F2700 X119.255 Y97.304
G1 F1200 X119.195 Y97.525 E26.59517
G0 F2700 X119.409 Y97.013
G0 X119.444 Y95.474
G0 X119.221 Y95.3
G0 X119.136 Y95.215
G1 F1200 X118.846 Y95.206 E26.60111
G1 X118.556 Y95.197 E26.60704
G1 X118.265 Y95.188 E26.613
G1 X117.975 Y95.179 E26.61893
G1 X117.685 Y95.17 E26.62483
G1 X117.394 Y95.161 E26.63079
G1 X117.104 Y95.153 E26.63676
G1 X116.813 Y95.143 E26.64268
G1 X116.523 Y95.135 E26.64861
G1 X116.233 Y95.126 E26.65455
G1 X115.943 Y95.117 E26.66048
G1 X115.652 Y95.108 E26.66644
G1 X115.362 Y95.099 E26.67237
G1 X115.072 Y95.09 E26.67827
G1 X114.781 Y95.081 E26.68419
G1 X114.491 Y95.072 E26.69009
G0 F2700 X114.212 Y94.793
